_includes/icons/ios-protect.svg

<svg fill="#666" height="50" viewBox="0 0 50 50" width="50" xmlns="http://www.w3.org/2000/svg"><path d="m25 0c-2.453125 0-4.523437 1.355469-7.59375 2.9375-3.070312 1.582031-7.191406 3.492188-13.625 4.90625l-.78125.1875v.78125c0 15.320313 5.371094 25.558594 10.75 31.90625s10.84375 8.875 10.84375 8.875l.4375.21875.4375-.21875s21.53125-11.125 21.53125-40.78125v-.78125l-.78125-.1875c-6.433594-1.414062-10.554687-3.324219-13.625-4.90625-3.070312-1.582031-5.140625-2.9375-7.59375-2.9375zm0 2c1.644531 0 3.550781 1.105469 6.6875 2.71875 2.980469 1.53125 7.171875 3.410156 13.25 4.84375-.367187 27.117188-18.683594 37.289063-19.96875 37.96875-.621094-.300781-4.949219-2.464844-9.71875-8.09375-5.027344-5.933594-10.003906-15.476562-10.1875-29.875 6.078125-1.433594 10.269531-3.3125 13.25-4.84375 3.136719-1.613281 5.042969-2.71875 6.6875-2.71875zm7.6875 12.625-.53125.84375-8.125 12.625-5.375-4.84375-.71875-.65625-1.34375 1.46875.75.6875 6.1875 5.625.875.78125.65625-1 8.78125-13.625.53125-.84375z"/></svg>

<svg xmlns="http://www.w3.org/2000/svg" viewBox="0 0 50 50" width="50" height="50" fill="#666"><path d="M 25 0 C 22.546875 0 20.476563 1.355469 17.40625 2.9375 C 14.335938 4.519531 10.214844 6.429688 3.78125 7.84375 L 3 8.03125 L 3 8.8125 C 3 24.132813 8.371094 34.371094 13.75 40.71875 C 19.128906 47.066406 24.59375 49.59375 24.59375 49.59375 L 25.03125 49.8125 L 25.46875 49.59375 C 25.46875 49.59375 47 38.46875 47 8.8125 L 47 8.03125 L 46.21875 7.84375 C 39.785156 6.429688 35.664063 4.519531 32.59375 2.9375 C 29.523438 1.355469 27.453125 0 25 0 Z M 25 2 C 26.644531 2 28.550781 3.105469 31.6875 4.71875 C 34.667969 6.25 38.859375 8.128906 44.9375 9.5625 C 44.570313 36.679688 26.253906 46.851563 24.96875 47.53125 C 24.347656 47.230469 20.019531 45.066406 15.25 39.4375 C 10.222656 33.503906 5.246094 23.960938 5.0625 9.5625 C 11.140625 8.128906 15.332031 6.25 18.3125 4.71875 C 21.449219 3.105469 23.355469 2 25 2 Z M 32.6875 14.625 L 32.15625 15.46875 L 24.03125 28.09375 L 18.65625 23.25 L 17.9375 22.59375 L 16.59375 24.0625 L 17.34375 24.75 L 23.53125 30.375 L 24.40625 31.15625 L 25.0625 30.15625 L 33.84375 16.53125 L 34.375 15.6875 Z"/></svg>
